icons/svg/seamark/restriction_to_be_avoided.svg

<?xml version="1.0" encoding="UTF-8" standalone="no"?>
<svg
   xmlns:dc="http://purl.org/dc/elements/1.1/"
   xmlns:cc="http://creativecommons.org/ns#"
   xmlns:rdf="http://www.w3.org/1999/02/22-rdf-syntax-ns#"
   xmlns:svg="http://www.w3.org/2000/svg"
   xmlns="http://www.w3.org/2000/svg"
   xmlns:sodipodi="http://sodipodi.sourceforge.net/DTD/sodipodi-0.dtd"
   xmlns:inkscape="http://www.inkscape.org/namespaces/inkscape"
   width="320"
   height="320"
   id="svg2"
   version="1.1"
   inkscape:version="0.48.4 r9939"
   sodipodi:docname="restriction_to_be_avoided.svg">
  <defs
     id="defs13">
    <inkscape:path-effect
       effect="gears"
       id="path-effect3774"
       is_visible="true"
       teeth="6"
       phi="-1.2" />
    <inkscape:path-effect
       effect="bend_path"
       id="path-effect3772"
       is_visible="false"
       bendpath="m 95.790098,316.51174 c 144.429032,-206.42506 223.313032,-11.7428 339.548092,0"
       prop_scale="1.19"
       scale_y_rel="false"
       vertical="false"
       bendpath-nodetypes="cc" />
  </defs>
  <sodipodi:namedview
     pagecolor="#ffffff"
     bordercolor="#666666"
     borderopacity="1"
     objecttolerance="10"
     gridtolerance="10"
     guidetolerance="10"
     inkscape:pageopacity="0"
     inkscape:pageshadow="2"
     inkscape:window-width="1920"
     inkscape:window-height="1004"
     id="namedview11"
     showgrid="false"
     inkscape:zoom="3.2551722"
     inkscape:cx="152.68938"
     inkscape:cy="155.70887"
     inkscape:window-x="1680"
     inkscape:window-y="0"
     inkscape:window-maximized="1"
     inkscape:current-layer="svg2"
     inkscape:snap-bbox="true"
     inkscape:object-nodes="true"
     inkscape:snap-midpoints="true"
     inkscape:snap-grids="false"
     inkscape:snap-bbox-edge-midpoints="true"
     showguides="true"
     inkscape:guide-bbox="true">
    <inkscape:grid
       type="xygrid"
       id="grid2990"
       empspacing="5"
       visible="true"
       enabled="true"
       snapvisiblegridlinesonly="true"
       spacingx="10px"
       spacingy="10px"
       dotted="false" />
    <sodipodi:guide
       orientation="1,0"
       position="55.202458,260.58927"
       id="guide3872" />
    <sodipodi:guide
       orientation="1,0"
       position="265.17816,340"
       id="guide3874" />
    <sodipodi:guide
       orientation="0,1"
       position="317.80107,264.96094"
       id="guide3876" />
    <sodipodi:guide
       orientation="0,1"
       position="325.098,54.759006"
       id="guide3878" />
  </sodipodi:namedview>
  <metadata
     id="metadata2975">image/svg+xmlen<rdf:RDF>
  <cc:Work
     rdf:about="">
    <dc:format>image/svg+xml</dc:format>
    <dc:type
       rdf:resource="http://purl.org/dc/dcmitype/StillImage" />
    <dc:title></dc:title>
  </cc:Work>
</rdf:RDF>
</metadata>
  <path
     inkscape:connector-curvature="0"
     id="path3775-0"
     style="font-size:224.46321106px;font-style:normal;font-variant:normal;font-weight:bold;font-stretch:normal;line-height:125%;letter-spacing:0px;word-spacing:0px;fill:#000000;fill-opacity:1;stroke:none;font-family:Abyssinica SIL;-inkscape-font-specification:Abyssinica SIL Bold"
     d="m 174.74136,112.04948 c -7e-5,2.04601 -0.0731,4.01883 -0.2192,5.91847 -0.1462,1.89987 -0.32887,3.87268 -0.54801,5.91846 -0.21927,1.97293 -0.51154,4.05535 -0.87681,6.24727 -0.29233,2.19212 -0.5846,4.53028 -0.87681,7.01447 l -7.12407,51.18375 -10.63132,0 -7.12407,-51.40295 c -0.36538,-2.55726 -0.69418,-4.93195 -0.98641,-7.12407 -0.29231,-2.19192 -0.58458,-4.27434 -0.87681,-6.24727 -0.29231,-1.97271 -0.51151,-3.909 -0.65761,-5.80886 -0.14617,-1.89964 -0.21924,-3.87246 -0.2192,-5.91847 -4e-5,-8.69489 1.31517,-15.051762 3.94564,-19.070598 2.70345,-4.01857 6.50295,-6.02792 11.39852,-6.02807 2.41117,1.5e-4 4.53013,0.43856 6.35687,1.31522 1.82663,0.80388 3.36104,2.19217 4.60325,4.16484 1.31515,1.97296 2.26502,4.603386 2.84963,7.891288 0.65754,3.21509 0.98634,7.19727 0.98641,11.94652 m 2.41123,103.90192 c -7e-5,2.41124 -0.43848,4.67633 -1.31522,6.79527 -0.87688,2.11897 -2.08249,3.94565 -3.61684,5.48006 -1.53448,1.53442 -3.36116,2.77657 -5.48005,3.72644 -2.04595,0.87681 -4.23797,1.31522 -6.57608,1.31522 -2.41127,0 -4.67636,-0.43841 -6.79527,-1.31522 -2.119,-0.94987 -3.94568,-2.19202 -5.48006,-3.72644 -1.53445,-1.53441 -2.7766,-3.36109 -3.72644,-5.48006 -0.87684,-2.11894 -1.31525,-4.38403 -1.31521,-6.79527 -4e-5,-2.33814 0.43837,-4.53016 1.31521,-6.57607 0.94984,-2.11893 2.19199,-3.94561 3.72644,-5.48006 1.53438,-1.53438 3.36106,-2.74 5.48006,-3.61684 2.11891,-0.87677 4.384,-1.31518 6.79527,-1.31521 2.33811,3e-5 4.53013,0.43844 6.57608,1.31521 2.11889,0.87684 3.94557,2.08246 5.48005,3.61684 1.53435,1.53445 2.73996,3.36113 3.61684,5.48006 0.87674,2.04591 1.31515,4.23793 1.31522,6.57607" />
</svg>

<svg width="320" height="320" viewBox="0 0 320 320" fill="none" xmlns="http://www.w3.org/2000/svg">
<path d="M174.742 112.05C174.742 114.096 174.668 116.069 174.522 117.969C174.376 119.869 174.194 121.841 173.974 123.887C173.755 125.86 173.463 127.943 173.098 130.134C172.805 132.327 172.513 134.665 172.221 137.149L165.097 188.333H154.465L147.341 136.93C146.976 134.373 146.647 131.998 146.355 129.806C146.063 127.614 145.77 125.531 145.478 123.558C145.186 121.586 144.967 119.649 144.82 117.75C144.674 115.85 144.601 113.877 144.601 111.831C144.601 103.136 145.916 96.7793 148.547 92.7605C151.25 88.7419 155.05 86.7326 159.945 86.7324C162.357 86.7326 164.476 87.171 166.302 88.0476C168.129 88.8515 169.663 90.2398 170.906 92.2125C172.221 94.1854 173.171 96.8159 173.755 100.104C174.413 103.319 174.742 107.301 174.742 112.05V112.05ZM177.153 215.952C177.153 218.363 176.714 220.629 175.838 222.747C174.961 224.866 173.755 226.693 172.221 228.228C170.686 229.762 168.86 231.004 166.741 231.954C164.695 232.831 162.503 233.269 160.165 233.269C157.753 233.269 155.488 232.831 153.369 231.954C151.25 231.004 149.424 229.762 147.889 228.228C146.355 226.693 145.113 224.866 144.163 222.747C143.286 220.629 142.848 218.363 142.848 215.952C142.848 213.614 143.286 211.422 144.163 209.376C145.113 207.257 146.355 205.431 147.889 203.896C149.424 202.362 151.25 201.156 153.369 200.279C155.488 199.402 157.753 198.964 160.165 198.964C162.503 198.964 164.695 199.402 166.741 200.279C168.86 201.156 170.686 202.362 172.221 203.896C173.755 205.431 174.961 207.257 175.838 209.376C176.714 211.422 177.153 213.614 177.153 215.952Z" fill="black"/>
</svg>
